icons/snowflake.svg

<svg width="24" height="24" viewBox="0 0 24 24" fill="none" xmlns="http://www.w3.org/2000/svg">
<path fill-rule="evenodd" clip-rule="evenodd" d="M12 23C12.5523 23 13 22.5523 13 22V20.5542L13.47 20.848C13.9383 21.1407 14.5553 20.9983 14.848 20.53C15.1407 20.0617 14.9983 19.4447 14.53 19.152L13 18.1958V16.118L15 15.118L17 16.118V18C17 18.5523 17.4477 19 18 19C18.5523 19 19 18.5523 19 18V17.118L20.5528 17.8944C21.0467 18.1414 21.6474 17.9412 21.8944 17.4472C22.1414 16.9532 21.9412 16.3526 21.4472 16.1056L19.8944 15.3292L20.6 14.8C21.0418 14.4686 21.1313 13.8418 20.8 13.4C20.4686 12.9582 19.8418 12.8686 19.4 13.2L17.8944 14.3292L16 13.382V10.618L17.8944 9.67082L19.4 10.8C19.8418 11.1314 20.4686 11.0418 20.8 10.6C21.1313 10.1582 21.0418 9.53137 20.6 9.2L19.8944 8.67082L21.4472 7.89443C21.9412 7.64744 22.1414 7.04677 21.8944 6.55279C21.6474 6.05881 21.0467 5.85858 20.5528 6.10557L19 6.88197V6C19 5.44772 18.5523 5 18 5C17.4477 5 17 5.44772 17 6V7.88197L15 8.88197L13 7.88197V5.80425L14.53 4.848C14.9983 4.55529 15.1407 3.93834 14.848 3.47C14.5553 3.00167 13.9383 2.85929 13.47 3.152L13 3.44575V2C13 1.44772 12.5523 1 12 1C11.4477 1 11 1.44772 11 2V3.44575L10.53 3.152C10.0616 2.85929 9.44469 3.00167 9.15198 3.47C8.85927 3.93834 9.00164 4.55529 9.46998 4.848L11 5.80425V7.88197L8.99997 8.88197L6.99997 7.88197V6C6.99997 5.44772 6.55226 5 5.99997 5C5.44769 5 4.99997 5.44772 4.99997 6V6.88197L3.44719 6.10557C2.95321 5.85858 2.35254 6.05881 2.10555 6.55279C1.85856 7.04677 2.05878 7.64744 2.55276 7.89443L4.10555 8.67082L3.39997 9.2C2.95815 9.53137 2.8686 10.1582 3.19997 10.6C3.53135 11.0418 4.15815 11.1314 4.59997 10.8L6.10555 9.67082L7.99997 10.618V13.382L6.10555 14.3292L4.59997 13.2C4.15815 12.8686 3.53135 12.9582 3.19997 13.4C2.8686 13.8418 2.95815 14.4686 3.39997 14.8L4.10555 15.3292L2.55276 16.1056C2.05878 16.3526 1.85856 16.9532 2.10555 17.4472C2.35254 17.9412 2.95321 18.1414 3.44719 17.8944L4.99997 17.118V18C4.99997 18.5523 5.44769 19 5.99997 19C6.55226 19 6.99997 18.5523 6.99997 18V16.118L8.99997 15.118L11 16.118V18.1958L9.46998 19.152C9.00164 19.4447 8.85927 20.0617 9.15198 20.53C9.44469 20.9983 10.0616 21.1407 10.53 20.848L11 20.5542V22C11 22.5523 11.4477 23 12 23ZM12 14.382L9.99998 13.382V10.618L12 9.61803L14 10.618V13.382L12 14.382Z" fill="black"/>
</svg>

<svg
  width="24"
  height="24"
  viewBox="0 0 24 24"
  xmlns="http://www.w3.org/2000/svg"
>
  <path
    fill-rule="evenodd"
    clip-rule="evenodd"
    d="M12 23a1 1 0 0 0 1-1v-1.446l.47.294a1 1 0 0 0 1.06-1.696L13 18.196v-2.078l2-1 2 1V18a1 1 0 1 0 2 0v-.882l1.553.776a1 1 0 1 0 .894-1.788l-1.553-.777.706-.529a1 1 0 0 0-1.2-1.6l-1.506 1.13L16 13.381v-2.764l1.894-.947L19.4 10.8a1 1 0 0 0 1.2-1.6l-.706-.53 1.553-.776a1 1 0 1 0-.894-1.788L19 6.882V6a1 1 0 1 0-2 0v1.882l-2 1-2-1V5.804l1.53-.956a1 1 0 0 0-1.06-1.696l-.47.294V2a1 1 0 1 0-2 0v1.446l-.47-.294a1 1 0 0 0-1.06 1.696l1.53.956v2.078l-2 1-2-1V6a1 1 0 1 0-2 0v.882l-1.553-.776a1 1 0 0 0-.894 1.788l1.553.777L3.4 9.2a1 1 0 0 0 1.2 1.6l1.506-1.13L8 10.619v2.764l-1.894.947L4.6 13.2a1 1 0 0 0-1.2 1.6l.706.53-1.553.776a1 1 0 1 0 .894 1.788L5 17.118V18a1 1 0 1 0 2 0v-1.882l2-1 2 1v2.078l-1.53.956a1 1 0 1 0 1.06 1.696l.47-.294V22a1 1 0 0 0 1 1zm0-8.618l-2-1v-2.764l2-1 2 1v2.764l-2 1z"
  />
</svg>
